X:1
T:Selena, 88.88.88
T:Selena, 88.88.88
T:Isaac Baker Woodbury, 1850
T:Public Domain Courtesy of the Cyber Hymnal™
C:Isaac Baker Woodbury, 1850
Z:Public Domain
Z:Courtesy of the Cyber Hymnal™
%%score ( 1 2 ) ( 3 4 )
L:1/8
M:3/2
K:Ab
V:1 treble 
V:2 treble 
V:3 bass 
V:4 bass 
V:1
 [CE]2 [CE]2 [CE]2 | [DF]6 E2 [B,E]2 [B,=D]2 | [B,E]6 [EG]2 [EG]2 [EA]2 | [EB]6 [EA]2 [EA]2 [EG]2 | %4
 [EA]6 [CE]2 [CE]2 [CE]2 | [DF]6 E2 [B,E]2 [B,=D]2 | [B,E]6 [EG]2 [EG]2 [EA]2 | %7
 [EB]6 [EA]2 [EA]2 [EG]2 | [EA]6 [Ec]2 [Ec]2 [Ec]2 | [Fd]6 [Ec]2 [DB]2 [CA]2 | %10
 [DF]6 [DF]2 [DF]2 [DF]2 | E2 [DE]2 [CE]4 E4 | [CE]6 |] %13
V:2
 x6 | x6 E2 x4 | x12 | x12 | x12 | x6 E2 x4 | x12 | x12 | x12 | x12 | x12 | E2 x4 (B,2 C2) x2 | %12
 x6 |] %13
V:3
 [A,,A,]2 [A,,A,]2 [A,,A,]2 | [D,A,]6 [C,A,]2 [B,,G,]2 [B,,F,]2 | [E,G,]6 [E,B,]2 [E,B,]2 [E,C]2 | %3
 [E,D]6 [E,C]2 [E,C]2 [E,B,]2 | [A,,C]6 [A,,A,]2 [A,,A,]2 [A,,A,]2 | %5
 [D,A,]6 [C,A,]2 [B,,G,]2 [B,,F,]2 | [E,G,]6 [E,B,]2 [E,B,]2 [E,C]2 | %7
 [E,D]6 [E,C]2 [E,C]2 [E,B,]2 | [A,,C]6 A,2 A,2 A,2 | A,6 A,2 [E,G,]2 [F,A,]2 | %10
 [D,A,]6 [D,A,]2 [D,A,]2 [D,A,]2 | [C,A,]2 [B,,G,]2 [A,,A,]4 (F,2 B,2) | [A,,A,]6 |] %13
V:4
 x6 | x12 | x12 | x12 | x12 | x12 | x12 | x12 | x6 A,2 A,2 A,2 | A,6 A,2 x4 | x12 | x8 E,4 | x6 |] %13

